svg/telegram.svg

<?xml version="1.0" encoding="UTF-8"?>
<svg xmlns="http://www.w3.org/2000/svg" xmlns:xlink="http://www.w3.org/1999/xlink" width="32" height="32" viewBox="0 0 32 32">
<defs>
<linearGradient id="linear-pattern-0" gradientUnits="userSpaceOnUse" x1="120" y1="240" x2="120" y2="0" gradientTransform="matrix(0.13333, 0, 0, 0.13333, 0, 0)">
<stop offset="0" stop-color="rgb(11.372549%, 57.647061%, 82.352942%)" stop-opacity="1"/>
<stop offset="1" stop-color="rgb(21.960784%, 69.01961%, 89.019608%)" stop-opacity="1"/>
</linearGradient>
</defs>
<path fill-rule="nonzero" fill="url(#linear-pattern-0)" d="M 16 0 C 7.164062 0 0 7.164062 0 16 C 0 24.835938 7.164062 32 16 32 C 24.835938 32 32 24.835938 32 16 C 32 7.164062 24.835938 0 16 0 "/>
<path fill-rule="nonzero" fill="rgb(78.431374%, 85.490197%, 91.764706%)" fill-opacity="1" d="M 10.832031 17.167969 L 12.730469 22.421875 C 12.730469 22.421875 12.964844 22.914062 13.21875 22.914062 C 13.472656 22.914062 17.253906 18.984375 17.253906 18.984375 L 21.457031 10.863281 L 10.898438 15.8125 Z M 10.832031 17.167969 "/>
<path fill-rule="nonzero" fill="rgb(66.274512%, 77.64706%, 84.705883%)" fill-opacity="1" d="M 13.347656 18.515625 L 12.984375 22.390625 C 12.984375 22.390625 12.832031 23.578125 14.015625 22.390625 C 15.203125 21.203125 16.339844 20.289062 16.339844 20.289062 "/>
<path fill-rule="nonzero" fill="rgb(100%, 100%, 100%)" fill-opacity="1" d="M 10.863281 17.355469 L 6.960938 16.085938 C 6.960938 16.085938 6.492188 15.894531 6.644531 15.464844 C 6.675781 15.378906 6.738281 15.300781 6.921875 15.171875 C 7.789062 14.570312 22.9375 9.125 22.9375 9.125 C 22.9375 9.125 23.367188 8.980469 23.617188 9.078125 C 23.746094 9.117188 23.839844 9.21875 23.867188 9.351562 C 23.894531 9.464844 23.90625 9.578125 23.902344 9.695312 C 23.902344 9.796875 23.890625 9.886719 23.878906 10.035156 C 23.789062 11.523438 21.027344 22.632812 21.027344 22.632812 C 21.027344 22.632812 20.863281 23.285156 20.269531 23.304688 C 19.976562 23.316406 19.691406 23.203125 19.480469 23 C 18.320312 22 14.304688 19.304688 13.417969 18.710938 C 13.378906 18.683594 13.351562 18.636719 13.34375 18.589844 C 13.332031 18.527344 13.398438 18.449219 13.398438 18.449219 C 13.398438 18.449219 20.390625 12.238281 20.574219 11.585938 C 20.589844 11.535156 20.535156 11.507812 20.464844 11.53125 C 20 11.703125 11.949219 16.785156 11.0625 17.34375 C 10.996094 17.363281 10.929688 17.367188 10.863281 17.355469 "/>
</svg>

<svg role="img" viewBox="0 0 32 32" xmlns="http://www.w3.org/2000/svg"><defs><linearGradient gradientTransform="scale(.13333)" gradientUnits="userSpaceOnUse" id="telegram_svg__a" x1="120" x2="120" y1="240" y2="0"><stop offset="0" stop-color="rgb(11.372549%, 57.647061%, 82.352942%)"/><stop offset="1" stop-color="rgb(21.960784%, 69.01961%, 89.019608%)"/></linearGradient></defs><path d="M16 0C7.164 0 0 7.164 0 16s7.164 16 16 16 16-7.164 16-16S24.836 0 16 0" fill="url(#telegram_svg__a)"/><path d="m10.832 17.168 1.898 5.254s.235.492.489.492 4.035-3.93 4.035-3.93l4.203-8.12-10.559 4.948Zm0 0" fill="rgb(78.431374%, 85.490197%, 91.764706%)"/><path d="m13.348 18.516-.364 3.875s-.152 1.187 1.032 0c1.187-1.188 2.324-2.102 2.324-2.102" fill="rgb(66.274512%, 77.64706%, 84.705883%)"/><path d="m10.863 17.355-3.902-1.27s-.469-.19-.316-.62c.03-.086.093-.164.277-.293.867-.602 16.016-6.047 16.016-6.047s.43-.145.68-.047a.36.36 0 0 1 .25.274q.04.168.034.343c0 .102-.011.192-.023.34-.09 1.488-2.852 12.598-2.852 12.598s-.164.652-.757.672a1.08 1.08 0 0 1-.79-.305c-1.16-1-5.175-3.695-6.062-4.29a.2.2 0 0 1-.074-.12c-.012-.063.054-.14.054-.14s6.993-6.212 7.176-6.864c.016-.05-.039-.078-.11-.055-.464.172-8.515 5.254-9.401 5.813a.4.4 0 0 1-.2.011" fill="rgb(100%, 100%, 100%)"/></svg>
